www/assets/icons/format_list_numbered_rtl.svg

<svg xmlns="http://www.w3.org/2000/svg" width="24" height="24" viewBox="0 0 24 24" fill='currentColor'><path d="M18.5 17h2v.5h-1v1h1v.5h-2v1h3v-4h-3zm1-9h1V4h-2v1h1zm-1 3h1.8l-1.8 2.1v.9h3v-1h-1.8l1.8-2.1V10h-3zm-16-6h14v2h-14zm0 12h14v2h-14zm0-6h14v2h-14z"/></svg>

<svg width="24" height="24" viewBox="0 0 24 24" xmlns="http://www.w3.org/2000/svg" fill='currentColor'><path d="M18.5 17H20.5V17.5H19.5V18.5H20.5V19H18.5V20H21.5V16H18.5V17ZM19.5 8H20.5V4H18.5V5H19.5V8ZM18.5 11H20.3L18.5 13.1V14H21.5V13H19.7L21.5 10.9V10H18.5V11ZM2.5 5H16.5V7H2.5V5ZM2.5 17H16.5V19H2.5V17ZM2.5 11H16.5V13H2.5V11Z"/></svg>
